SVG_Azure_Grouped/Storage/Storage Account.svg

<?xml version="1.0" encoding="UTF-8" standalone="no"?>
<!-- Generated by Microsoft Visio, SVG Export Storage Account.svg Page-1 -->

<svg
   xmlns:dc="http://purl.org/dc/elements/1.1/"
   xmlns:cc="http://creativecommons.org/ns#"
   xmlns:rdf="http://www.w3.org/1999/02/22-rdf-syntax-ns#"
   xmlns:svg="http://www.w3.org/2000/svg"
   xmlns="http://www.w3.org/2000/svg"
   xmlns:sodipodi="http://sodipodi.sourceforge.net/DTD/sodipodi-0.dtd"
   xmlns:inkscape="http://www.inkscape.org/namespaces/inkscape"
   width="0.78735936in"
   height="0.62991387in"
   viewBox="0 0 56.689782 45.353896"
   xml:space="preserve"
   class="st5"
   version="1.1"
   id="svg47"
   sodipodi:docname="Storage Account.svg"
   style="font-size:12px;overflow:visible;color-interpolation-filters:sRGB;fill:none;fill-rule:evenodd;stroke-linecap:square;stroke-miterlimit:3"
   inkscape:version="0.92.5 (2060ec1f9f, 2020-04-08)"><metadata
   id="metadata51"><rdf:RDF><cc:Work
       rdf:about=""><dc:format>image/svg+xml</dc:format><dc:type
         rdf:resource="http://purl.org/dc/dcmitype/StillImage" /></cc:Work></rdf:RDF></metadata><sodipodi:namedview
   pagecolor="#ffffff"
   bordercolor="#666666"
   borderopacity="1"
   objecttolerance="10"
   gridtolerance="10"
   guidetolerance="10"
   inkscape:pageopacity="0"
   inkscape:pageshadow="2"
   inkscape:window-width="640"
   inkscape:window-height="480"
   id="namedview49"
   showgrid="false"
   inkscape:zoom="1.5612629"
   inkscape:cx="37.795252"
   inkscape:cy="30.225663"
   inkscape:window-x="0"
   inkscape:window-y="0"
   inkscape:window-maximized="0"
   inkscape:current-layer="svg47" />
	<style
   type="text/css"
   id="style2">
	<![CDATA[
		.st1 {fill:url(#grad0-6);stroke:none;stroke-linecap:butt;stroke-width:34}
		.st2 {fill:#37c2b1;stroke:none;stroke-linecap:butt;stroke-width:34}
		.st3 {fill:#ffffff;stroke:none;stroke-linecap:butt;stroke-width:34}
		.st4 {fill:#258277;stroke:none;stroke-linecap:butt;stroke-width:34}
		.st5 {fill:none;fill-rule:evenodd;font-size:12px;overflow:visible;stroke-linecap:square;stroke-miterlimit:3}
	]]>
	</style>

	<defs
   id="Patterns_And_Gradients">
		<linearGradient
   id="grad0-6"
   x1="0"
   y1="104.3574"
   x2="43.474643"
   y2="104.3574"
   gradientTransform="scale(1.3039785,0.76688381)"
   gradientUnits="userSpaceOnUse">
			<stop
   offset="0"
   stop-color="#b3b3b3"
   stop-opacity="1"
   id="stop4" />
			<stop
   offset="0.26"
   stop-color="#c1c1c1"
   stop-opacity="1"
   id="stop6" />
			<stop
   offset="1"
   stop-color="#e6e6e6"
   stop-opacity="1"
   id="stop8" />
		</linearGradient>
	</defs>
	<g
   id="g45"
   transform="translate(-34.000237,-34.0004)">
		<title
   id="title12">Page-1</title>
		<g
   id="group20065-1"
   transform="translate(34,-34.0157)">
			<title
   id="title14">Storage Account.20065</title>
			<g
   id="group20066-2">
				<title
   id="title16">Sheet.20066</title>
				<g
   id="shape20067-3">
					<title
   id="title18">Sheet.20067</title>
					<path
   d="m 0,80.03 h 56.69 v 31.45 a 1.90088,1.89115 0 0 1 -1.9,1.89 H 1.9 A 1.90088,1.89115 0 0 1 0,111.48 Z"
   class="st1"
   id="path20"
   inkscape:connector-curvature="0"
   style="fill:url(#grad0-6);stroke:none;stroke-width:34;stroke-linecap:butt" />
				</g>
				<g
   id="shape20068-7"
   transform="translate(0,-33.3439)">
					<title
   id="title23">Sheet.20068</title>
					<path
   d="m 1.9,101.36 h 52.89 a 1.90088,1.89115 0 0 1 1.9,1.89 v 10.12 H 0 v -10.15 a 1.90088,1.89115 0 0 1 1.9,-1.86 z"
   class="st2"
   id="path25"
   inkscape:connector-curvature="0"
   style="fill:#37c2b1;stroke:none;stroke-width:34;stroke-linecap:butt" />
				</g>
				<g
   id="shape20069-9"
   transform="translate(6.8365,-23.2578)">
					<title
   id="title28">Sheet.20069</title>
					<path
   d="m 0.87,106.93 h 41.25 a 0.900417,0.895806 0 0 1 0.867068,0.89581 L 42.99,112.47 a 0.900417,0.895806 0 0 1 -0.867068,0.89581 L 0.87,113.37 A 0.900417,0.895806 0 0 1 0.002932,112.47419 L 0,107.83 a 0.900417,0.895806 0 0 1 0.867068,-0.89581 z"
   class="st3"
   id="path30"
   inkscape:connector-curvature="0"
   style="fill:#ffffff;stroke:none;stroke-width:34;stroke-linecap:butt" />
				</g>
				<g
   id="shape20070-11"
   transform="translate(6.86985,-13.9679)">
					<title
   id="title33">Sheet.20070</title>
					<path
   d="m 0.87,106.9 h 41.25 a 0.900417,0.895806 0 0 1 0.867068,0.89581 L 42.99,112.47 a 0.900417,0.895806 0 0 1 -0.867068,0.89581 L 0.87,113.37 A 0.900417,0.895806 0 0 1 0.002932,112.47419 L 0,107.96 a 0.900417,0.895806 0 0 1 0.867068,-1.0617 z"
   class="st2"
   id="path35"
   inkscape:connector-curvature="0"
   style="fill:#37c2b1;stroke:none;stroke-width:34;stroke-linecap:butt" />
				</g>
				<g
   id="shape20071-13"
   transform="translate(6.86985,-4.61174)">
					<title
   id="title38">Sheet.20071</title>
					<path
   d="m 0.87,106.9 h 41.25 a 0.900417,0.895806 0 0 1 0.867068,0.89581 L 42.99,112.47 a 0.900417,0.895806 0 0 1 -0.867068,0.89581 L 0.87,113.37 A 0.900417,0.895806 0 0 1 0.002932,112.47419 L 0,107.8 a 0.900417,0.895806 0 0 1 0.867068,-0.89581 z"
   class="st4"
   id="path40"
   inkscape:connector-curvature="0"
   style="fill:#258277;stroke:none;stroke-width:34;stroke-linecap:butt" />
				</g>
			</g>
		</g>
	</g>
</svg>

<?xml version="1.0" encoding="UTF-8" standalone="no"?>
<!DOCTYPE svg PUBLIC "-//W3C//DTD SVG 1.1//EN" "http://www.w3.org/Graphics/SVG/1.1/DTD/svg11.dtd">
<!-- Generated by Microsoft Visio, SVG Export Storage Account.svg Page-1 -->
<svg xmlns="http://www.w3.org/2000/svg" xmlns:xlink="http://www.w3.org/1999/xlink" xmlns:ev="http://www.w3.org/2001/xml-events"
		width="1.73185in" height="1.57458in" viewBox="0 0 124.693 113.37" xml:space="preserve" color-interpolation-filters="sRGB"
		class="st5">
	<style type="text/css">
	<![CDATA[
		.st1 {fill:url(#grad0-6);stroke:none;stroke-linecap:butt;stroke-width:34}
		.st2 {fill:#37c2b1;stroke:none;stroke-linecap:butt;stroke-width:34}
		.st3 {fill:#ffffff;stroke:none;stroke-linecap:butt;stroke-width:34}
		.st4 {fill:#258277;stroke:none;stroke-linecap:butt;stroke-width:34}
		.st5 {fill:none;fill-rule:evenodd;font-size:12px;overflow:visible;stroke-linecap:square;stroke-miterlimit:3}
	]]>
	</style>

	<defs id="Patterns_And_Gradients">
		<linearGradient id="grad0-6" x1="0" y1="0" x2="1" y2="0" gradientTransform="rotate(-90 0.5 0.5)">
			<stop offset="0" stop-color="#b3b3b3" stop-opacity="1"/>
			<stop offset="0.26" stop-color="#c1c1c1" stop-opacity="1"/>
			<stop offset="1" stop-color="#e6e6e6" stop-opacity="1"/>
		</linearGradient>
	</defs>
	<g>
		<title>Page-1</title>
		<g id="group19610-1" transform="translate(34,-34.0157)">
			<title>Storage Account.19610</title>
			<g id="group19611-2">
				<title>Sheet.19611</title>
				<g id="shape19612-3">
					<title>Sheet.19612</title>
					<path d="M0 80.03 L56.69 80.03 L56.69 111.48 A1.90088 1.89115 0 0 1 54.79 113.37 L1.9 113.37 A1.90088 1.89115
								 0 0 1 0 111.48 L0 80.03 Z" class="st1"/>
				</g>
				<g id="shape19613-7" transform="translate(0,-33.3439)">
					<title>Sheet.19613</title>
					<path d="M1.9 101.36 L54.79 101.36 A1.90088 1.89115 0 0 1 56.69 103.25 L56.69 113.37 L0 113.37 L0 103.22 A1.90088
								 1.89115 0 0 1 1.9 101.36 Z" class="st2"/>
				</g>
				<g id="shape19614-9" transform="translate(6.8365,-23.2578)">
					<title>Sheet.19614</title>
					<path d="M0.87 106.93 L42.12 106.93 a0.900417 0.895806 0 0 1 0.867068 0.895806 L42.99 112.47 a0.900417 0.895806
								 0 0 1 -0.867068 0.895806 L0.87 113.37 a0.900417 0.895806 0 0 1 -0.867068 -0.895806 L0 107.83 a0.900417
								 0.895806 0 0 1 0.867068 -0.895806 Z" class="st3"/>
				</g>
				<g id="shape19615-11" transform="translate(6.86985,-13.9679)">
					<title>Sheet.19615</title>
					<path d="M0.87 106.9 L42.12 106.9 a0.900417 0.895806 0 0 1 0.867068 0.895806 L42.99 112.47 a0.900417 0.895806
								 0 0 1 -0.867068 0.895806 L0.87 113.37 a0.900417 0.895806 0 0 1 -0.867068 -0.895806 L0 107.96 a0.900417
								 0.895806 0 0 1 0.867068 -1.0617 Z" class="st2"/>
				</g>
				<g id="shape19616-13" transform="translate(6.86985,-4.61174)">
					<title>Sheet.19616</title>
					<path d="M0.87 106.9 L42.12 106.9 a0.900417 0.895806 0 0 1 0.867068 0.895806 L42.99 112.47 a0.900417 0.895806
								 0 0 1 -0.867068 0.895806 L0.87 113.37 a0.900417 0.895806 0 0 1 -0.867068 -0.895806 L0 107.8 a0.900417
								 0.895806 0 0 1 0.867068 -0.895806 Z" class="st4"/>
				</g>
			</g>
		</g>
	</g>
</svg>
